markup/sourceimages/icon19.svg

<svg xmlns="http://www.w3.org/2000/svg" width="57" height="57"><path fill-rule="evenodd" fill="#5393DD" d="M56.485 50.269l-9.768-9.767a1.75 1.75 0 0 0-1.509-.494l-3.52-3.519a71.853 71.853 0 0 0-.543-3.796c5.757-1.074 10.319-5.775 11.045-11.766a.835.835 0 0 0-1.658-.201 11.91 11.91 0 0 1-2.993 6.566 11.877 11.877 0 0 1-3.082-8.024c0-3.002 1.089-5.821 3.082-8.026a11.915 11.915 0 0 1 2.993 6.567.835.835 0 0 0 1.658-.2C51.361 10.768 45.533 5.61 38.632 5.61c-2.648 0-5.122.758-7.218 2.068a21.373 21.373 0 0 0-.712-.789l-.006-.007c-.13-.137-.261-.274-.395-.408l-.045-.046-.019-.019C26.772 2.953 22.364.731 17.82.151 13.254-.431 8.933.682 5.65 3.287a.836.836 0 0 0 1.038 1.308c6.158-4.886 15.782-3.59 22.386 3.013l.009.009.033.035c.124.124.246.25.365.376l.006.006c.191.201.379.408.563.618-.287.232-.564.474-.831.728a.783.783 0 0 0-.143.14c-.14.137-.277.277-.411.42a19.759 19.759 0 0 0-.926-.994l-.001-.001-.001-.002a19.07 19.07 0 0 0-5.35-3.78.747.747 0 0 0-.107-.051c-2.961-1.369-6.107-1.845-8.976-1.384a.75.75 0 0 0-.154.025c-2.358.408-4.522 1.454-6.233 3.165-.001.001-.002.003-.004.003v.001l-.001.001c-1.698 1.7-2.741 3.846-3.154 6.186a.835.835 0 0 0-.042.262c-.444 2.851.036 5.971 1.394 8.909a19.084 19.084 0 0 0 3.833 5.459c3.024 3.024 6.84 4.911 10.744 5.314.519.054 1.033.08 1.538.08a13.709 13.709 0 0 0 2.268-.188c2.425-.411 4.579-1.49 6.267-3.176l.001-.001.003-.003.063-.066c.485.411.999.787 1.539 1.128-.088.093-.176.184-.266.274-1.524 1.525-3.369 2.624-5.484 3.27a.834.834 0 1 0 .026 1.605l.133.036.208.057a83.907 83.907 0 0 0 9.484 1.901.836.836 0 0 0 .706-.237l1.56-1.56a.834.834 0 0 0 .237-.706 79.896 79.896 0 0 0-.405-2.584 13.458 13.458 0 0 0 1.92.015c.294 1.742.46 3.051.531 3.665l-3.453 3.453c-2.475-.289-16.203-2.116-25.171-7.928l-.012-.007a21.319 21.319 0 0 1-3.773-3.006C.988 22.457-.298 12.821 4.614 6.663a.835.835 0 1 0-1.305-1.041C.691 8.903-.432 13.229.147 17.802c.577 4.559 2.807 8.982 6.279 12.454a22.934 22.934 0 0 0 4.064 3.237c5.33 3.453 12.198 5.505 17.022 6.62 4.456 1.029 7.954 1.462 8.976 1.576l3.521 3.521c-.08.533.083 1.097.493 1.507l9.767 9.768a1.75 1.75 0 0 0 1.245.515c.47 0 .912-.183 1.244-.515l3.727-3.727a1.762 1.762 0 0 0 0-2.489zM23.589 31.227l-4.072-4.071 3.225-3.224 5.22 5.22c-1.238 1.035-2.725 1.737-4.373 2.075zm-12.861-4.093l3.203-3.202 3.225 3.224-2.627 2.627a17.412 17.412 0 0 1-3.801-2.649zM6.9 22.152l2.626-2.626 3.224 3.225-3.203 3.203A17.473 17.473 0 0 1 6.9 22.152zm-1.681-6.933l3.126 3.127-2.171 2.17c-.669-1.764-.992-3.568-.955-5.297zM7.53 8.721l5.22 5.219-3.224 3.225-4.071-4.071c.334-1.618 1.022-3.113 2.075-4.373zm5.55-3.262l4.076 4.076-3.225 3.224-5.221-5.22c1.26-1.055 2.753-1.744 4.37-2.08zm12.873 4.09l-3.211 3.21-3.225-3.224 2.633-2.633a17.42 17.42 0 0 1 3.803 2.647zm-4.392 4.391l-3.225 3.225-3.224-3.225 3.224-3.224 3.225 3.224zm4.733 11.182l-2.371-2.371 1.237-1.237c.211 1.27.597 2.481 1.134 3.608zm-1.319-5.785l-2.233 2.233-3.225-3.224 3.225-3.225 2.35 2.35a13.836 13.836 0 0 0-.118 1.797l.001.069zm-7.819-.991l-3.225 3.224-3.225-3.224 3.225-3.225 3.225 3.225zm-2.044 4.405l3.224-3.225 3.225 3.225-3.225 3.225-3.224-3.225zm14.619 4.538a11.94 11.94 0 0 1-3.087-8.021 11.94 11.94 0 0 1 3.087-8.022 11.879 11.879 0 0 1 3.079 8.022c0 3-1.088 5.817-3.079 8.021zm-4.233-11.773l-1.575-1.576 3.21-3.209c.153.169.305.34.452.514a13.64 13.64 0 0 0-2.087 4.271zm-4.983-9.34l-2.179 2.178-3.133-3.134c1.732-.038 3.543.285 5.312.956zm-.657 25.216a14.734 14.734 0 0 1-3.693-.883l2.171-2.172 3.124 3.124c-.523.01-1.058-.013-1.602-.069zm16.4 3.895l-.971.97a83.392 83.392 0 0 1-6.733-1.272 14.54 14.54 0 0 0 4.321-3.334c.932.434 1.92.767 2.95.983.162.9.308 1.789.433 2.653zm-5.325-6.838a13.529 13.529 0 0 0 3.547-9.181 13.53 13.53 0 0 0-3.547-9.182 11.935 11.935 0 0 1 7.699-2.806c2.914 0 5.609 1.048 7.704 2.803a13.532 13.532 0 0 0-3.549 9.185c0 3.439 1.254 6.666 3.549 9.183a11.965 11.965 0 0 1-7.704 2.804 11.935 11.935 0 0 1-7.699-2.806zm9.956 9.602l2.895 2.895-2.838 2.839-2.895-2.895 2.838-2.839zm14.415 13.526l-3.727 3.727a.09.09 0 0 1-.127 0l-9.767-9.767a.091.091 0 0 1 0-.128l3.726-3.726a.084.084 0 0 1 .063-.026c.025 0 .047.008.064.026l9.768 9.767a.09.09 0 0 1 0 .127z"/></svg>

<svg 
 xmlns="http://www.w3.org/2000/svg"
 xmlns:xlink="http://www.w3.org/1999/xlink"
 width="57px" height="57px">
<path fill-rule="evenodd"  fill="rgb(83, 147, 221)"
 d="M56.485,50.269 L46.717,40.502 C46.384,40.170 45.943,39.987 45.472,39.987 C45.383,39.987 45.295,39.995 45.208,40.008 L41.688,36.489 C41.624,35.916 41.459,34.564 41.145,32.693 C46.902,31.619 51.464,26.918 52.190,20.927 C52.245,20.469 51.919,20.053 51.461,19.997 C51.003,19.942 50.588,20.268 50.532,20.726 C50.226,23.252 49.143,25.516 47.539,27.292 C45.546,25.088 44.457,22.269 44.457,19.268 C44.457,16.266 45.546,13.447 47.539,11.242 C49.143,13.019 50.226,15.283 50.532,17.809 C50.588,18.267 51.003,18.593 51.461,18.538 C51.919,18.482 52.245,18.067 52.190,17.609 C51.361,10.768 45.533,5.610 38.632,5.610 C35.984,5.610 33.510,6.368 31.414,7.678 C31.183,7.409 30.945,7.145 30.702,6.889 C30.700,6.886 30.698,6.884 30.696,6.882 C30.566,6.745 30.435,6.608 30.301,6.474 L30.256,6.428 C30.250,6.422 30.243,6.415 30.237,6.409 C26.772,2.953 22.364,0.731 17.820,0.151 C13.254,-0.431 8.933,0.682 5.650,3.287 C5.289,3.573 5.228,4.099 5.514,4.460 C5.801,4.821 6.326,4.881 6.688,4.595 C12.846,-0.291 22.470,1.005 29.074,7.608 C29.077,7.611 29.080,7.614 29.083,7.617 L29.116,7.652 C29.240,7.776 29.362,7.902 29.481,8.028 C29.483,8.030 29.485,8.031 29.487,8.034 C29.678,8.235 29.866,8.442 30.050,8.652 C29.763,8.884 29.486,9.126 29.219,9.380 C29.187,9.405 29.156,9.431 29.127,9.462 C29.109,9.480 29.092,9.500 29.076,9.520 C28.936,9.657 28.799,9.797 28.665,9.940 C28.368,9.599 28.059,9.266 27.739,8.946 C27.739,8.945 27.738,8.945 27.738,8.945 C27.737,8.944 27.737,8.944 27.737,8.943 C26.114,7.321 24.290,6.058 22.387,5.163 C22.352,5.143 22.317,5.126 22.280,5.112 C19.319,3.743 16.173,3.267 13.304,3.728 C13.253,3.731 13.201,3.739 13.150,3.753 C10.792,4.161 8.628,5.207 6.917,6.918 C6.916,6.919 6.915,6.921 6.913,6.921 C6.913,6.922 6.913,6.922 6.913,6.922 C6.912,6.922 6.912,6.923 6.912,6.923 C5.214,8.623 4.171,10.769 3.758,13.109 C3.730,13.194 3.716,13.282 3.716,13.371 C3.272,16.222 3.752,19.342 5.110,22.280 C5.124,22.317 5.142,22.354 5.162,22.390 C6.057,24.292 7.321,26.116 8.943,27.739 C11.967,30.763 15.783,32.650 19.687,33.053 C20.206,33.107 20.720,33.133 21.225,33.133 C21.973,33.133 22.702,33.074 23.409,32.960 C23.438,32.956 23.465,32.951 23.493,32.945 C25.918,32.534 28.072,31.455 29.760,29.769 C29.760,29.769 29.760,29.769 29.760,29.769 C29.760,29.768 29.761,29.768 29.761,29.768 C29.762,29.767 29.763,29.766 29.764,29.765 C29.785,29.744 29.806,29.721 29.827,29.699 C30.312,30.110 30.826,30.486 31.366,30.827 C31.278,30.920 31.190,31.011 31.100,31.101 C29.576,32.626 27.731,33.725 25.616,34.371 C25.259,34.480 25.018,34.811 25.025,35.184 C25.031,35.556 25.282,35.879 25.642,35.976 L25.775,36.012 C25.844,36.031 25.913,36.050 25.983,36.069 C30.037,37.138 33.665,37.719 35.467,37.970 C35.505,37.975 35.544,37.978 35.582,37.978 C35.802,37.978 36.015,37.891 36.173,37.733 L37.733,36.173 C37.919,35.988 38.006,35.726 37.970,35.467 C37.853,34.627 37.717,33.762 37.565,32.883 C37.917,32.911 38.273,32.925 38.632,32.925 C38.918,32.925 39.202,32.915 39.485,32.898 C39.779,34.640 39.945,35.949 40.016,36.563 L36.563,40.016 C34.088,39.727 20.360,37.900 11.392,32.088 C11.388,32.086 11.384,32.083 11.380,32.081 C10.024,31.234 8.755,30.223 7.607,29.075 C0.988,22.457 -0.298,12.821 4.614,6.663 C4.902,6.302 4.843,5.777 4.482,5.489 C4.122,5.202 3.596,5.261 3.309,5.622 C0.691,8.903 -0.432,13.229 0.147,17.802 C0.724,22.361 2.954,26.784 6.426,30.256 C7.662,31.492 9.029,32.581 10.490,33.493 C15.820,36.946 22.688,38.998 27.512,40.113 C31.968,41.142 35.466,41.575 36.488,41.689 L40.009,45.210 C39.929,45.743 40.092,46.307 40.502,46.717 L50.269,56.485 C50.602,56.817 51.043,57.000 51.514,57.000 C51.984,57.000 52.426,56.817 52.758,56.485 L56.485,52.758 C57.171,52.072 57.171,50.956 56.485,50.269 ZM23.589,31.227 L19.517,27.156 L22.742,23.932 L27.962,29.152 C26.724,30.187 25.237,30.889 23.589,31.227 ZM10.728,27.134 L13.931,23.932 L17.156,27.156 L14.529,29.783 C13.180,29.093 11.899,28.203 10.728,27.134 ZM6.900,22.152 L9.526,19.526 L12.750,22.751 L9.547,25.954 C8.466,24.768 7.581,23.483 6.900,22.152 ZM5.219,15.219 L8.345,18.346 L6.174,20.516 C5.505,18.752 5.182,16.948 5.219,15.219 ZM7.530,8.721 L12.750,13.940 L9.526,17.165 L5.455,13.094 C5.789,11.476 6.477,9.981 7.530,8.721 ZM13.080,5.459 L17.156,9.535 L13.931,12.759 L8.710,7.539 C9.970,6.484 11.463,5.795 13.080,5.459 ZM25.953,9.549 L22.742,12.759 L19.517,9.535 L22.150,6.902 C23.482,7.583 24.767,8.467 25.953,9.549 ZM21.561,13.940 L18.336,17.165 L15.112,13.940 L18.336,10.716 L21.561,13.940 ZM26.294,25.122 L23.923,22.751 L25.160,21.514 C25.371,22.784 25.757,23.995 26.294,25.122 ZM24.975,19.337 L22.742,21.570 L19.517,18.346 L22.742,15.121 L25.092,17.471 C25.015,18.059 24.974,18.659 24.974,19.268 C24.974,19.291 24.975,19.314 24.975,19.337 ZM17.156,18.346 L13.931,21.570 L10.706,18.346 L13.931,15.121 L17.156,18.346 ZM15.112,22.751 L18.336,19.526 L21.561,22.751 L18.336,25.976 L15.112,22.751 ZM29.731,27.289 C27.813,25.163 26.644,22.349 26.644,19.268 C26.644,16.186 27.813,13.372 29.731,11.246 C31.722,13.450 32.810,16.267 32.810,19.268 C32.810,22.268 31.722,25.085 29.731,27.289 ZM25.498,15.516 L23.923,13.940 L27.133,10.731 C27.286,10.900 27.438,11.071 27.585,11.245 C26.657,12.520 25.943,13.962 25.498,15.516 ZM20.515,6.176 L18.336,8.354 L15.203,5.220 C16.935,5.182 18.746,5.505 20.515,6.176 ZM19.858,31.392 C18.609,31.263 17.369,30.964 16.165,30.509 L18.336,28.337 L21.460,31.461 C20.937,31.471 20.402,31.448 19.858,31.392 ZM36.258,35.287 L35.287,36.257 C33.788,36.039 31.356,35.636 28.554,34.985 C29.934,34.286 31.181,33.382 32.281,32.282 C32.485,32.078 32.683,31.867 32.875,31.651 C33.807,32.085 34.795,32.418 35.825,32.634 C35.987,33.534 36.133,34.423 36.258,35.287 ZM30.933,28.449 C33.227,25.932 34.480,22.705 34.480,19.268 C34.480,15.830 33.227,12.603 30.933,10.086 C33.017,8.336 35.703,7.280 38.632,7.280 C41.546,7.280 44.241,8.328 46.336,10.083 C44.041,12.600 42.787,15.829 42.787,19.268 C42.787,22.707 44.041,25.934 46.336,28.451 C44.242,30.207 41.546,31.255 38.632,31.255 C35.703,31.255 33.017,30.199 30.933,28.449 ZM40.889,38.051 L43.784,40.946 L40.946,43.785 L38.051,40.890 L40.889,38.051 ZM55.304,51.577 L51.577,55.304 C51.542,55.339 51.485,55.339 51.450,55.304 L41.683,45.537 C41.648,45.501 41.648,45.444 41.683,45.409 L45.409,41.683 C45.426,41.665 45.448,41.657 45.472,41.657 C45.497,41.657 45.519,41.665 45.536,41.683 L55.304,51.450 C55.339,51.485 55.339,51.542 55.304,51.577 Z"/>
</svg>
